svg/fluentui-system-icons/ic_fluent_document_bullet_list_arrow_left_20_regular.svg

<svg width="20" height="20" viewBox="0 0 20 20" fill="none" xmlns="http://www.w3.org/2000/svg">
<path d="M5 4V9.02242C4.65659 9.05337 4.32228 9.11588 4 9.20703V4C4 2.89543 4.89543 2 6 2H10.5858C10.9836 2 11.3651 2.15804 11.6464 2.43934L15.5607 6.35355C15.842 6.63486 16 7.01639 16 7.41421V16C16 17.1046 15.1046 18 14 18H9.74284C9.99647 17.6929 10.2174 17.3578 10.4003 17H14C14.5523 17 15 16.5523 15 16V8H11.5C10.6716 8 10 7.32843 10 6.5V3H6C5.44772 3 5 3.44772 5 4ZM13.5 15H10.9776C10.9924 14.8353 11 14.6685 11 14.5C11 14.3315 10.9924 14.1647 10.9776 14H13.5C13.7761 14 14 14.2239 14 14.5C14 14.7761 13.7761 15 13.5 15ZM13.5 13H10.793C10.6944 12.6514 10.5622 12.3168 10.4003 12H13.5C13.7761 12 14 12.2239 14 12.5C14 12.7761 13.7761 13 13.5 13ZM13.5 11H9.74284C9.42948 10.6206 9.06621 10.2839 8.66308 10H13.5C13.7761 10 14 10.2239 14 10.5C14 10.7761 13.7761 11 13.5 11ZM14.7929 7L11 3.20711V6.5C11 6.77614 11.2239 7 11.5 7H14.7929ZM5.5 19C3.01472 19 1 16.9853 1 14.5C1 12.0147 3.01472 10 5.5 10C7.98528 10 10 12.0147 10 14.5C10 16.9853 7.98528 19 5.5 19ZM3.14684 14.146L3.14433 14.1486C3.09744 14.196 3.06198 14.2505 3.03794 14.3086C3.01385 14.3667 3.0004 14.4303 3.00001 14.497L3 14.5L3.00001 14.503C3.0004 14.5697 3.01385 14.6333 3.03794 14.6914C3.06234 14.7504 3.09851 14.8056 3.14645 14.8536L5.14645 16.8536C5.34171 17.0488 5.65829 17.0488 5.85355 16.8536C6.04882 16.6583 6.04882 16.3417 5.85355 16.1464L4.70711 15H7.5C7.77614 15 8 14.7761 8 14.5C8 14.2239 7.77614 14 7.5 14H4.70711L5.85355 12.8536C6.04882 12.6583 6.04882 12.3417 5.85355 12.1464C5.65829 11.9512 5.34171 11.9512 5.14645 12.1464L3.14684 14.146Z" fill="#212121"/>
</svg>

<svg xmlns="http://www.w3.org/2000/svg" width="20" height="20"><path d="M5 4v5.022a5.48 5.48 0 0 0-1 .185V4a2 2 0 0 1 2-2h4.586a1.5 1.5 0 0 1 1.06.44l3.915 3.914A1.5 1.5 0 0 1 16 7.414V16a2 2 0 0 1-2 2H9.743c.253-.307.474-.642.657-1H14a1 1 0 0 0 1-1V8h-3.5A1.5 1.5 0 0 1 10 6.5V3H6a1 1 0 0 0-1 1Zm8.5 11h-2.522a5.586 5.586 0 0 0 0-1H13.5a.5.5 0 0 1 0 1Zm0-2h-2.707a5.467 5.467 0 0 0-.393-1h3.1a.5.5 0 0 1 0 1Zm0-2H9.743a5.533 5.533 0 0 0-1.08-1H13.5a.5.5 0 0 1 0 1Zm1.293-4L11 3.207V6.5a.5.5 0 0 0 .5.5h3.293ZM5.5 19a4.5 4.5 0 1 1 0-9 4.5 4.5 0 0 1 0 9Zm-2.353-4.854-.003.003a.498.498 0 0 0-.144.348v.006a.498.498 0 0 0 .146.35l2 2a.5.5 0 0 0 .708-.707L4.707 15H7.5a.5.5 0 0 0 0-1H4.707l1.147-1.146a.5.5 0 0 0-.708-.708l-2 2Z"/></svg>
